X:1
T:25 Lieder
T:Aufmunterung zur Freude
T:2. Aufmunterung zur Freude
T:Corona Elisabeth Wilhelmine Schröter
T:Ludwig Heinrich Christoph Hölty
T:25 Lieder
T:NOTES TO TRANSCRIBER: 1. Full German text for the extra lyric verses is available on Lieder.net: https://www.lieder.net/lieder/get_text.html?TextId=20476 2. Please transcribe into the Soprano clef, exactly as published: the reviewer will convert staves to Treble clef. 
T:Creative Commons copyright waiver (CC0 1.0 Universal)
C:Corona Elisabeth Wilhelmine Schröter
Z:Ludwig Heinrich Christoph Hölty
Z:Creative Commons copyright waiver (CC0 1.0 Universal)
L:1/8
Q:1/4=114
M:2/4
K:Bb
V:1 alto1 nm="Singstimme\nVoice"
V:1
"^Munter, doch nicht geschwind" z F d c | (BA) (GF) | B2 G2 |{G} F=E F G | (AB) (cd) | (cf) (=ed) | %6
w: Wer woll- te|sich * mit *|Gril- len|pla- * gen, so|lang * uns *|Lenz * und *|
 (cB) (AG) | F2 z2 | z F A B | (cd) (_ef) | (ge) (cB) | (BA) G F | F3 E | (DF) (Bd) | (dc) (BA) | %15
w: Ju- * gend *|blühn?|Wer wollt' in|sei- * nen *|Blü- * ten- *|ta- * gen, die|Stirn in|dü- * stre *|Fal- * ten *|
 B2 z c | f2 _e2 | (fa) (g=e) | (fc) (cd) | (d_e) e g | (gf) (=ef) | (f_e) (de) | (ed) (^cd) | %23
w: ziehn? Die|Freu- de|winkt * auf *|al- * len *|we- * gen, die|durch * diess *|Pil- * ger- *|le- * ben *|
 (d=c) z F | B2 B2 | ed cB | (AB) (cA) | B2 F _A | (A2 G) =B | (cg) (fe) | (dc) (_BA) | B2 z2 |] %32
w: gehn; * Sie|bringt uns|selbst * den *|Kranz * ent- *|ge- gen, wenn|wir * am|Schei- * de- *|we- * ge *|stehn.|

